X:1
T:Title
%%score ( 1 2 ) ( 3 4 )
L:1/8
Q:1/4=107
M:4/4
K:C
V:1 treble nm="Grand Piano, Soprano"
V:2 treble 
V:3 bass nm="Choir Pad, Yorba Linda, 76.76 D"
V:4 bass 
V:1
 [EG]2 [EG][DF] [CE][DF] [EG]2 | [Ec]2 [Ge]4 [Ec]2 | [EG]2 [FA]2 [Fd]2 [Ec][DB] | .A2 z2 z4 | %4
w: By~Rand~L.~Newton,~1899 * * * * *||||
 [EG]2 [EG][DF] [CE][DF] [EG]2 | [Ec]2 [Ge]4 [Ec]2 | [EG]2 [FA]2 [Fd]2 [Ec]2 | [FB]2 [Ec]6 | %8
w: ||||
 [Ac]2 [Bd][Ac] [GB][Ac] [Bd]2 | G2 [Ge]4 [Ec]2 | [GB]2 [FA]2 [Fd]2 [^Fd]2 | [^Fc]2 [GB]6 | %12
w: ||||
 [FA]2 [EG][DF] [CE][DF] [EG]2 | [Ec]2 [Ge]4 [Ec]2 | [EG]2 [FA]2 [Fd]2 [Ec]2 | [FB]2 [Ec]6- | %16
w: ||||
 [Ec]2 z2 z4 |] %17
w: |
V:2
 x8 | x8 | x8 | F-[FB] [Ec]6 | x8 | x8 | x8 | x8 | x8 | x8 | x8 | x8 | x8 | x8 | x8 | x8 | x8 |] %17
V:3
 [C,C]2 [C,C]2 [C,G,]2 [C,C]2 | [C,G,]2 [C,C]4 [C,G,]2 | [C,C]2 [F,C]2 [F,A,]2 G,2 | G,2 [C,G,]6 | %4
 [C,C]2 [C,C]2 [C,G,]2 [C,C]2 | [C,G,]2 [C,C]4 [C,G,]2 | [C,C]2 [F,C]2 [F,A,]2 G,2 | %7
 [G,,G,]2 [C,G,]6 | z2 .B,2 z4 | [G,B,]2 [C,C]4 [C,G,]2 | [E,C]2 [F,C]2 [F,A,]2 [D,A,]2 | %11
 [D,D]2 [G,D]6 | [G,B,]2 [C,C]2 [C,G,]2 [C,C]2 | [C,G,]2 [C,C]4 [C,G,]2 | %14
 [C,C]2 [F,C]2 [F,A,]2 G,2 | [G,,G,]2 [C,G,]6- | [C,G,]2 z2 z4 |] %17
V:4
 x8 | x8 | x8 | x8 | x8 | x8 | x8 | x8 | G,2 G,-[G,C] [G,D]2 [G,B,]2 | x8 | x8 | x8 | x8 | x8 | %14
 x8 | x8 | x8 |] %17

